src/cmd/sc_pagebreakmode.svg

<svg viewBox="0 0 16 16" xmlns="http://www.w3.org/2000/svg">/&amp;gt;<path d="m2 2v7h1v-3h3v3h1v-3h2v-1h-2v-2h2v-1zm8 0v1h3v2h-3v1h3v3h1v-6-1zm-7 1h3v2h-3zm-1 7v4h1 6v-1h-2v-3h-1v3h-3v-3zm11 0v3h-3v1h4v-1-3z" fill="#232629"/><g fill="#762572"><path d="m2 9h4v1h-4z"/><path d="m7 9h2v1h-2z"/><path d="m10 9h4v1h-4z"/><path d="m9 2h1v3h-1z"/><path d="m9 6h1v3h-1z"/><path d="m9 10h1v4h-1z"/></g></svg>

<?xml version="1.0" encoding="UTF-8" standalone="no"?>
<svg
   xmlns:dc="http://purl.org/dc/elements/1.1/"
   xmlns:cc="http://creativecommons.org/ns#"
   xmlns:rdf="http://www.w3.org/1999/02/22-rdf-syntax-ns#"
   xmlns:svg="http://www.w3.org/2000/svg"
   xmlns="http://www.w3.org/2000/svg"
   xmlns:sodipodi="http://sodipodi.sourceforge.net/DTD/sodipodi-0.dtd"
   xmlns:inkscape="http://www.inkscape.org/namespaces/inkscape"
   viewBox="0 0 16 16"
   version="1.1"
   id="svg18"
   sodipodi:docname="sc_pagebreakmode.svg"
   inkscape:version="0.92.4 (5da689c313, 2019-01-14)"><metadata
   id="metadata24">
  <rdf:RDF>
    <cc:Work
       rdf:about="">
      <dc:format>image/svg+xml</dc:format>
      <dc:type
         rdf:resource="http://purl.org/dc/dcmitype/StillImage" />
    </cc:Work>
  </rdf:RDF>
</metadata>
<defs
   id="defs22" />
<sodipodi:namedview
   pagecolor="#ffffff"
   bordercolor="#666666"
   borderopacity="1"
   objecttolerance="10"
   gridtolerance="10"
   guidetolerance="10"
   inkscape:pageopacity="0"
   inkscape:pageshadow="2"
   inkscape:window-width="1920"
   inkscape:window-height="1011"
   id="namedview20"
   showgrid="true"
   inkscape:zoom="20.85965"
   inkscape:cx="4.9321142"
   inkscape:cy="4.4308339"
   inkscape:window-x="1920"
   inkscape:window-y="32"
   inkscape:window-maximized="1"
   inkscape:current-layer="svg18">
  <inkscape:grid
     type="xygrid"
     id="grid834" />
</sodipodi:namedview>
/&amp;gt;<path
   d="M 2,4 V 9 H 3 V 6 H 6 V 9 H 7 V 6 H 9 V 5 H 7 V 3 H 9 V 2 H 5 C 3,2 2,2 2,4 Z m 8,-2 v 1 h 1 c 1,0 2,0 2,1 v 1 h -3 v 1 h 3 v 3 h 1 V 4 C 14,2 13,2 11,2 Z M 3,4 C 3,3 4,3 5,3 H 6 V 5 H 3 Z m -1,6 v 2 c 0,2 1,2 3,2 H 9 V 13 H 7 V 10 H 6 v 3 H 5 C 4,13 3,13 3,12 v -2 z m 11,0 v 2 c 0,1 -1,1 -2,1 h -1 v 1 h 1 c 2,0 3,0 3,-2 v -2 z"
   id="path2"
   inkscape:connector-curvature="0"
   style="fill:#232629"
   sodipodi:nodetypes="ccccccccccccccccccccccccccccccccccccccccccccccccccccccccc" />
<g
   fill="#762572"
   id="g16">
  <path
     d="m2 9h4v1h-4z"
     id="path4" />
  <path
     d="m7 9h2v1h-2z"
     id="path6" />
  <path
     d="m10 9h4v1h-4z"
     id="path8" />
  <path
     d="m9 2h1v3h-1z"
     id="path10" />
  <path
     d="m9 6h1v3h-1z"
     id="path12" />
  <path
     d="m9 10h1v4h-1z"
     id="path14" />
</g>
</svg>
